icons/blood_b_p_fill.svg

<svg width="48" height="48" viewBox="0 0 48 48" fill="none" xmlns="http://www.w3.org/2000/svg">
<path fill-rule="evenodd" clip-rule="evenodd" d="M15 12C15 11.4477 15.4477 11 16 11H21C23.2091 11 25 12.7909 25 15C25 16.1947 24.4762 17.2671 23.6458 18C24.4762 18.7329 25 19.8053 25 21C25 23.2091 23.2091 25 21 25H16C15.7348 25 15.4804 24.8946 15.2929 24.7071C15.1054 24.5196 15 24.2652 15 24V12ZM21 17C22.1046 17 23 16.1046 23 15C23 13.8954 22.1046 13 21 13H17V17H21ZM23 21C23 22.1046 22.1046 23 21 23H17V19H21C22.1046 19 23 19.8954 23 21Z" fill="black"/>
<path d="M27 17C26.4477 17 26 17.4477 26 18C26 18.5523 26.4477 19 27 19H28.5V20.5C28.5 21.0523 28.9477 21.5 29.5 21.5C30.0523 21.5 30.5 21.0523 30.5 20.5V19H32C32.5523 19 33 18.5523 33 18C33 17.4477 32.5523 17 32 17H30.5V15.5C30.5 14.9477 30.0523 14.5 29.5 14.5C28.9477 14.5 28.5 14.9477 28.5 15.5V17H27Z" fill="black"/>
<path fill-rule="evenodd" clip-rule="evenodd" d="M10 34.0306C10 36.2228 11.7909 38 14 38H18V40H23V44H25V40H30V38H34C36.2091 38 38 36.2228 38 34.0306V10.3273C38 8.13508 36.2091 6.3579 34 6.3579H28L26.868 5.20243C25.2973 3.59919 22.7027 3.59919 21.132 5.20243L20 6.3579H14C11.7909 6.3579 10 8.13507 10 10.3273V34.0306ZM28 8.3579C27.4625 8.3579 26.9475 8.14152 26.5714 7.75754L25.4393 6.60207C24.6529 5.79931 23.3471 5.79931 22.5607 6.60207L21.4286 7.75754C21.0525 8.14151 20.5375 8.3579 20 8.3579H14C12.8809 8.3579 12 9.25408 12 10.3273V28.971C13.3017 28.9498 14.5326 28.9875 15.7005 29.0306C15.8789 29.0372 16.0555 29.0439 16.2306 29.0505C17.5139 29.0991 18.711 29.1444 19.8818 29.1195C22.5089 29.0636 24.924 28.6538 27.4919 27.1387C30.6105 25.2987 33.2501 25.8514 35.0748 26.9133C35.4135 27.1104 35.7222 27.3234 36 27.5388V10.3273C36 9.25408 35.1191 8.3579 34 8.3579H28Z" fill="black"/>
</svg>

<svg
  xmlns="http://www.w3.org/2000/svg"
  width="24"
  height="24"
  viewBox="0 0 24 24"
  fill="none"
  stroke="currentColor"
  stroke-width="2"
  stroke-linecap="round"
  stroke-linejoin="round"
>
  <path
    fill-rule="evenodd"
    d="M15 12a1 1 0 0 1 1-1h5a4 4 0 0 1 2.646 7A4 4 0 0 1 21 25h-5a1 1 0 0 1-1-1zm6 5a2 2 0 1 0 0-4h-4v4zm2 4a2 2 0 0 1-2 2h-4v-4h4a2 2 0 0 1 2 2"
    clip-rule="evenodd"
  />
  <path d="M27 17a1 1 0 1 0 0 2h1.5v1.5a1 1 0 1 0 2 0V19H32a1 1 0 1 0 0-2h-1.5v-1.5a1 1 0 1 0-2 0V17z" />
  <path
    fill-rule="evenodd"
    d="M10 34.03c0 2.193 1.79 3.97 4 3.97h4v2h5v4h2v-4h5v-2h4c2.21 0 4-1.777 4-3.97V10.328c0-2.192-1.79-3.97-4-3.97h-6l-1.132-1.155a4.02 4.02 0 0 0-5.736 0L20 6.358h-6c-2.21 0-4 1.777-4 3.97zM28 8.359a2 2 0 0 1-1.429-.6L25.44 6.602a2.02 2.02 0 0 0-2.878 0l-1.132 1.156a2 2 0 0 1-1.429.6h-6c-1.12 0-2 .896-2 1.97V28.97a69 69 0 0 1 3.7.06l.53.02c1.284.048 2.481.093 3.652.069 2.627-.056 5.042-.466 7.61-1.981 3.118-1.84 5.758-1.288 7.583-.226.338.197.647.41.925.626V10.327c0-1.073-.88-1.97-2-1.97z"
    clip-rule="evenodd"
  />
</svg>
